X:468
T:The Merry Andrew
Q:1/2=112
M:2/2
L:1/8
S:Maggot Pie
K:Am
P:A
|: "Am"A3B c2d2 | "Am"e4 a4 | "C"g2a2 e2g2 | "D"^f2gf edcB |\
"Am"c3d e2^f2 | "G"g4 b4 | "D"a2^f2 "A7"g2e2 | "D"d8 :|
P:B
|: "C"e3d cde^f | "G"g3d g4 | "Am"c3B ABcd | "E"e3B e4 |\
"D"A3G ^FGAB | "Am"c3d e3 ^f | "G"g2d2 d2B2 | "Am"A4 A4 :|

